X: 5
T: Jenny Picking Cockles
R: reel
M: 4/4
L: 1/8
K: Edor
|:Beed BAFB|AFdF eFdF|Bded BAFB|AFDE FEED|
E2ed BAFB|A2Bc ~d3e|fded BAFB|AFDE FEE2:|
|:~g3e f2ef|dB~B2 ABdf|g2eg fede|faba feef|
~g3e ~f3e|dB~B2 ABde|fded BAFB|AFDE FEE2:|


Tune 1357	Setting 14709

